src/pug/_include/call-us.svg

<svg width="18" height="18" viewBox="0 0 18 18">
<path fill-rule="evenodd" clip-rule="evenodd" d="M4.21875 7.13672H2.82941C2.9407 5.6197 3.60133 4.25288 4.61267 3.23491C5.75334 2.09176 7.32491 1.40625 9 1.40625C10.6751 1.40625 12.2467 2.09177 13.3873 3.23493C14.3987 4.2529 15.0593 5.61971 15.1706 7.13672H13.7813C13.3929 7.13672 13.0781 7.45151 13.0781 7.83984V12.6563V14.4492V15.1875C13.0781 15.5752 12.7627 15.8906 12.375 15.8906H10.2305V15.9129C9.99063 15.4804 9.52959 15.1875 9 15.1875C8.22336 15.1875 7.59375 15.8171 7.59375 16.5938C7.59375 17.3704 8.22336 18 9 18C9.52959 18 9.99063 17.7071 10.2305 17.2746V17.2969H12.375C13.5381 17.2969 14.4844 16.3506 14.4844 15.1875V15.1523H15.1875C16.7383 15.1523 18 13.8907 18 12.3398V9.94922C18 9.84018 17.9938 9.73257 17.9816 9.62672C17.8781 8.72374 17.3452 7.9494 16.5928 7.51361C16.5776 6.03928 16.1451 4.63172 15.351 3.42653C14.9506 2.8164 14.4629 2.26629 13.8994 1.79115C12.5355 0.635695 10.8257 0.00431197 9.01854 2.20672e-05C9.01236 7.35676e-06 9.00618 0 9 0C8.98942 0 8.97885 2.14795e-05 8.96828 6.44179e-05C7.16603 0.00738531 5.46116 0.638504 4.10061 1.79115C3.53714 2.26626 3.04947 2.81633 2.64907 3.42643C1.85473 4.63189 1.42219 6.03983 1.4072 7.51454C0.566894 8.00146 0 8.91011 0 9.94922V12.3398C0 13.8907 1.26169 15.1523 2.8125 15.1523H4.21875C4.60709 15.1523 4.92188 14.8376 4.92188 14.4492V7.83984C4.92188 7.45151 4.60709 7.13672 4.21875 7.13672ZM3.51563 13.7461H2.8125C2.03709 13.7461 1.40625 13.1153 1.40625 12.3398V9.94922C1.40625 9.17381 2.03709 8.54297 2.8125 8.54297H3.51563V13.7461ZM16.5938 12.3398C16.5938 13.1153 15.9629 13.7461 15.1875 13.7461H14.4844V12.6563V8.54297H15.1875C15.9629 8.54297 16.5938 9.17381 16.5938 9.94922V12.3398Z" fill="#4E5B67"/>
</svg>

<svg xmlns="http://www.w3.org/2000/svg" width="18" height="18"><path fill-rule="evenodd" d="M4.22 7.137H2.83a6.17 6.17 0 0 1 1.783-3.902A6.21 6.21 0 0 1 9 1.406a6.21 6.21 0 0 1 4.387 1.829 6.17 6.17 0 0 1 1.783 3.902h-1.39c-.388 0-.703.315-.703.703v7.348c0 .388-.315.703-.703.703H10.23v.022c-.24-.433-.7-.725-1.23-.725-.777 0-1.406.63-1.406 1.406S8.223 18 9 18c.53 0 .99-.293 1.23-.725v.022h2.145c1.163 0 2.11-.946 2.11-2.11v-.035h.703c1.55 0 2.813-1.262 2.813-2.812V9.95c0-.11-.006-.217-.018-.322-.104-.903-.636-1.677-1.39-2.113a7.54 7.54 0 0 0-1.242-4.087c-.4-.6-.888-1.16-1.452-1.635C12.536.636 10.826.004 9.02 0a9.64 9.64 0 0 0-.05 0C7.166.007 5.46.64 4.1 1.79c-.563.475-1.05 1.025-1.452 1.635a7.54 7.54 0 0 0-1.242 4.088C.567 8 0 8.9 0 9.95v2.39c0 1.55 1.262 2.813 2.813 2.813H4.22c.388 0 .703-.315.703-.703V7.84c0-.388-.315-.703-.703-.703zm-.703 6.61h-.703a1.41 1.41 0 0 1-1.406-1.406V9.95a1.41 1.41 0 0 1 1.406-1.406h.703v5.203zm13.078-1.406a1.41 1.41 0 0 1-1.406 1.406h-.703V8.543h.703a1.41 1.41 0 0 1 1.406 1.406v2.39z" fill="#4e5b67"/></svg>
